X: 1
T:Music Theory Notes
C:Traditional
M:C
L:1/4
Q:1/4
K:C
| [DAda] | [EBe] | [Gdg] | [Aea] | [B] |
w: MajorChords
| [EGeg] | [EBa] | [Ada] | [Bd] | []
w: Emin Esus4 Amin Bmin
| DE^FG | AB^cd | e^fga | b 
w: D Major
| GABc | de^fg | a b
w: G Major
| ABcd | efga | b
w: A Minor
| AB^cd | e^f^ga | b
w: A Major
| 

